X:1
T:[ID 2-26a]
T:[ID 2-26a]
T:Bezeichnung standardisiert: March March Viol. Primo
T:Urheber unbekannt Datum in der hier transkribierten schriftlichen Quelle: 1767
C:Urheber unbekannt
C:Datum in der hier transkribierten schriftlichen Quelle: 1767
%%score 1 2
L:1/8
M:4/4
K:D
V:1 treble nm="Primo"
V:2 treble nm="Secundo"
V:1
 d2 d>d d>fe>d | e2 e>e e4 | f2 f>f f>ag>f | e2 e>e e4 :: a2 a>a d'>ag>f | g2 g>g g4 | %6
 (3fdf (3afa d'>ag>f | e2 e>e e4 | d2 d>d d>fe>d | e2 e>e e4 | (3fga (3bc'd' f2 e/d/c | x8 :| %12
V:2
 F2 F>F F>AG>F | c2 c>c c4 | d2 d>d d>fe>d | c2 c>c c>BA>G :: f2 f>f f>fe>d | e2 e>e e4 | %6
"^1)" x4 f>fe>d | c2 c>c cBAG | F2 F>F F>AG>F | c2 c>c c4 |"^1)" x4 A2 G/F/E | F2 F>F F4 :| %12

